X:1
T: Lady S. Montgomery's Reel
C:R. Mackintosh
R:Reel
Q: 232
K:Em
M:4/4
L:1/8
|:B|e2 ^dB cA BG|AB GA FD dF|e2 ^dB cA BG|AB GF GE EB|
e2 ^dB cA BG|AB GA FD dF|e2 ^dB cA BG|AB GF GE EB|
e2 Bg f2 B^d|e^c dG FD dF|e1/2e1/2e Bg f1/2f1/2f B^d|ec BA GE EB|
e2 Bg f2 B^d|e^c dG FD dF|GE FA BG Ac|Bb fa ge e:|
